X:1
T:Zwölf Gesänge, Op.3
T:Wachtelwacht
T:4. Wachtelwacht
T:Louise Reichardt
T:Aus des Knaben Wunderhorn (eds. von Arnim and Brentano)
T:Zwölf Gesänge, Op.3
T:6. Ist nun das Schneiden der Früchte vorbey, Harte Zeit, harte Zeit! Schon kommt der Winter herbey; Hebt sich zum Lande zu wandern nun fort Hin zu dem andern weit fröhlichern Ort, Wünsche indessen dem Lande noch an: Hüt dich Gott, hüt dich Gott! Fliehet in Frieden bergan.
T:OpenScore (CC0)
T:OpenScore (CC0)
C:Louise Reichardt
Z:Aus des Knaben Wunderhorn (eds. von Arnim and Brentano)
Z:OpenScore (CC0)
%%score 1 { 2 | 3 }
L:1/8
Q:1/4=100
M:3/8
K:F
V:1 treble nm="Voice"
V:2 treble nm="Piano"
V:3 bass 
V:1
"^Fröhlich" A A B | c c (c/f/) | (f/e/) d e | f2 c3/4 c/4 | c z c3/4 c/4 | c2 z | f e d | c d =B | %8
w: Hört wie die|Wach- tel im *|Grü- * nen schön|schlägt, lo- bet|Gott, lo- bet|Gott!|mir komt kein|Schau- der, sie|
 c2 z | g (f/e/) (d/c/) | c =B A | G A =B | c2 z | (e/f/) (e/d/) (c/=B/) | A A A | =B A B | c2 z | %17
w: sagt,|flie- het * von *|ei- nem ins|an- dre grün|Feld,|und * uns * den *|Wachst- hum der|Frü- chte ver-|meldt,|
 =G G G | c c c | d c d | e2 c3/4 c/4 | c2 c3/4 c/4 | c2 z | f e d | c3- | c B G | F2 z | z3 | z3 | %29
w: ru- fet zu|al- len mit|Lust und mit|Freud, dan- ke|Gott, dan- ke|Gott,|der du mir|ge-|* ben die|Zeit.|||
 z3 | z3 :| %31
w: ||
V:2
 [FA]/C/[FA]/C/[GB]/C/ | [Ac]/C/[Ac]/C/[Ac]/C/ | [GB]/C/[GB]/C/[GB]/C/ | %3
 [FA]/C/[FA]/C/ [FAc]/>[FAc]/ | [FAc]2 [FAc]/>[FAc]/ | [FAc]2 z | A/f/ G/e/ F/d/ | %7
 E/c/ F/d/ D/=B/ | E/G/c/G/E/G/ | E/G/c/G/E/G/ | F/G/=B/G/F/G/ | F/G/=B/G/F/G/ | E/G/c/G/E/C/ | %13
 D/E/^G/E/D/E/ | C/E/A/E/C/E/ | D/E/^G/E/D/E/ | C/E/A/E/C/A,/ | [DF]/G/[DF]/G/[DF]/G/ | %18
 [CE]/G/[CE]/G/[CE]/G/ | [DF]/G/[DF]/G/[DF]/G/ | [EG]2 [EGc]/>[EGc]/ | [EGc]2 [EG_Bc]/>[EGBc]/ | %22
 [EGBc]2 z | [Ff][Ee][Dd] | c/A/F/C/F/A/ | B/G/E/C/E/G/ | F/C/F/A/ [FAc]/>[FAc]/ | %27
 [FAc]2 [FAc]/>[FAc]/ | [FAc]2 z | [Af][Bg][Ge] | [Af]2 z :| %31
V:3
 F,2 z | F,2 z | C,2 z | F,2 z | z3 | z3 | F,2 z | G,2 z | C,2 z | [C,C]2 z | [G,,G,]2 z | %11
 [G,,G,]2 z | [C,,C,]2 z | E,2 z | A,2 z | E,2 z | A,2 z | G,G,G, | C,C,C, | G,,G,,G,, | C,2 z | %21
 C2 z | C2 z | DCB, | C2 z | C,2 z | F,2 z | F,2 z | F, z/ C,/F,/A,/ | CCC | F,2 z :| %31

